X:1
T:Turned Away from the Beautiful Gate
T:Turned Away from the Beautiful Gate
T:David Elijah Dortch
T:David Elijah Dortch, 1890
T:Public Domain Courtesy of the Cyber Hymnal™
T:Public Domain Courtesy of the Cyber Hymnal™
C:David Elijah Dortch
Z:Public Domain
Z:Courtesy of the Cyber Hymnal™
%%score ( 1 2 ) 3
L:1/8
Q:1/4=85
M:6/8
K:G
V:1 treble 
V:2 treble 
V:3 bass 
V:1
 [B,D][B,D][B,D] [B,D]2 [B,D]/[B,D]/ | [CE]2 [CE] [B,D]2 [B,D] | [DG][DG][DG] [DG][DG][DG] | %3
w: 1.~Some one will knock at the|saints’ bright home, And|hear the Lord say- ing, “You|
w: 2.~Some one will hear th- e|an- gels’ song, And|wish he could join with the|
w: 3.~Some one will stand with an|ach- ing heart, While|Je- sus pro- nounc- es the|
w: 4.~Some one will lin- ger with|tear- ful eyes, While|Christ and His peo- ple as-|
 [FA]2 [GB] [FA]2 [Ae] | [Gd]<[Gd][Gd] [Ge][Gd][DB] | [EA][EG][CE] [B,D]2 [DG]/>[DG]/ | %6
w: can not come”; With|sad- ness he’ll mourn o’er his|sor- row- ful state; Turned a-|
w: hap- py throng; With|sigh- ings he’ll mourn o’er his|sor- row- ful state, Turned a-|
w: word, “de- part”; With|groan- ings he’ll mourn o’er his|sor- row- ful state, Turned a-|
w: cend the skies; With|weep- ing he’ll mourn o’er his|sor- row- ful state, Turned a-|
 [DG]2 [DG]/>[DG]/ [GB][GB][FA] | G3- G2 ||"^Refrain" [Gd]/>[Gd]/ | %9
w: way from the beau- ti- ful|gate. *|Turned a-|
w: way from the beau- ti- ful|gate. *|Turned a-|
w: way from the beau- ti- ful|gate. *|Turned a-|
w: way from the beau- ti- ful|gate. *|Turned a-|
 [Gd]2 [Gd]/>[Gd]/ [Gd][Ge][Gd] | [GB]3- [GB]2 [FA]/>[FA]/ | [FA]2 [FA]/>[FA]/ [FA][GB][FA] | %12
w: way from the beau- ti- ful|gate, * Turned a-|way from the beau- ti- ful|
w: way from the beau- ti- ful|gate, * Turned a-|way from the beau- ti- ful|
w: way from the beau- ti- ful|gate, * Turned a-|way from the beau- ti- ful|
w: way from the beau- ti- ful|gate, * Turned a-|way from the beau- ti- ful|
 G3- G2 [Gd] | [Gd]<[Gd][Gd] [Ge][Gd][DB] | [EA][EG][CE] [B,D]2 [DG]/>[DG]/ | %15
w: gate, * With|sad- ness he’ll mourn o’er his|sor- row- ful state; Turned a-|
w: gate, * With|sigh- ings he’ll mourn o’er his|sor- row- ful state, Turned a-|
w: gate, * With|groan- ings he’ll mourn o’er his|sor- row- ful state, Turned a-|
w: gate, * With|weep- ing he’ll mourn o’er his|sor- row- ful state, Turned a-|
 [DG]2 [DG]/>[DG]/ [GB][GB][FA] | G3- G2 |] %17
w: way from the beau- ti- ful|gate. *|
w: way from the beau- ti- ful|gate. *|
w: way from the beau- ti- ful|gate. *|
w: way from the beau- ti- ful|gate. *|
V:2
 x6 | x6 | x6 | x6 | x6 | x6 | x6 | G3- G2 || x | x6 | x6 | x6 | G3- G2 x | x6 | x6 | x6 | %16
 G3- G2 |] %17
V:3
 [G,,G,][G,,G,][G,,G,] [G,,G,]2 [G,,G,]/[G,,G,]/ | [C,G,]2 [C,G,] [G,,G,]2 [G,,G,] | %2
 [G,B,][G,B,][G,B,] [G,B,][G,B,][G,B,] | [D,D]2 [D,D] [D,D]2 [F,C] | %4
 [G,B,]<[G,B,][G,B,] [G,C][G,B,][G,D] | [C,C][C,C][C,G,] [G,,G,]2 [G,B,]/>[G,B,]/ | %6
 [G,B,]2 [G,B,]/>[G,B,]/ [D,D][D,D][D,C] | [G,,G,B,]3- [G,,G,B,]2 || [G,B,]/>[G,B,]/ | %9
 [G,B,]2 [G,B,]/>[G,B,]/ [G,B,][G,C][G,B,] | [G,D]3- [G,D]2 [D,D]/>[D,D]/ | %11
 [D,D]2 [D,D]/>[D,D]/ [D,D][D,D][D,C] | [G,B,]3- [G,B,]2 [G,B,] | %13
 [G,B,]<[G,B,][G,B,] [G,C][G,B,][G,D] | [C,C][C,C][C,G,] [G,,G,]2 [G,B,]/>[G,B,]/ | %15
 [G,B,]2 [G,B,]/>[G,B,]/ [D,D][D,D][D,C] | [G,,G,B,]3- [G,,G,B,]2 |] %17

